build/category/LightningOutline.svg

<svg xmlns="http://www.w3.org/2000/svg" fill="none" viewBox="0 0 24 24" focusable="false"><path d="M0 0H24V24H0z"/><path fill="#74767B" fill-rule="evenodd" d="M13.77 3.30868C13.5741 3.27529 13.3741 3.33824 13.2327 3.47781L4.76074 11.8379C4.38956 12.2042 4.57913 12.8365 5.0906 12.9381L8.93207 13.7015C9.97896 13.9096 10.664 14.9206 10.4692 15.9701L9.72667 19.9699C9.66379 20.3086 9.89028 20.6332 10.2298 20.6911C10.4257 20.7245 10.6257 20.6615 10.7672 20.522L19.2391 12.1618C19.6103 11.7956 19.4207 11.1633 18.9092 11.0617L15.0677 10.2982C14.0209 10.0902 13.3358 9.07913 13.5306 8.0297L14.2731 4.02985C14.336 3.69118 14.1095 3.36657 13.77 3.30868ZM12.3195 2.55249C12.7589 2.11897 13.38 1.92345 13.9884 2.02717C15.0431 2.20697 15.7466 3.2152 15.5513 4.26714L14.8088 8.26698C14.7438 8.61679 14.9722 8.95381 15.3211 9.02316L19.1626 9.78659C20.697 10.0915 21.2657 11.9883 20.1522 13.0872L11.6803 21.4473C11.2409 21.8808 10.6198 22.0763 10.0114 21.9726C8.95668 21.7928 8.25322 20.7846 8.44851 19.7326L9.19106 15.7328C9.256 15.383 9.02764 15.046 8.67867 14.9766L4.8372 14.2132C3.3028 13.9082 2.7341 12.0114 3.84763 10.9126L12.3195 2.55249Z"/></svg>

<svg xmlns="http://www.w3.org/2000/svg" fill="none" viewBox="0 0 24 24" focusable="false"><path fill="#74767B" fill-rule="evenodd" d="M13.77 3.3c-.2-.03-.4.03-.54.17l-8.47 8.36c-.38.37-.19 1 .33 1.1l3.84.77c1.04.2 1.73 1.22 1.53 2.27l-.74 3.99c-.06.34.17.67.5.73.2.03.4-.03.54-.17l8.47-8.36c.38-.37.19-1-.33-1.1l-3.84-.77a1.943 1.943 0 0 1-1.53-2.27l.74-4a.63.63 0 0 0-.5-.72m-1.46-.75c.44-.44 1.06-.63 1.67-.53 1.06.18 1.76 1.19 1.57 2.24l-.75 4c-.06.35.17.69.52.76l3.84.76c1.53.31 2.1 2.2.99 3.3l-8.47 8.36c-.44.44-1.07.63-1.67.53a1.923 1.923 0 0 1-1.57-2.24l.75-4a.66.66 0 0 0-.52-.76l-3.84-.76c-1.53-.31-2.1-2.2-.99-3.3z"/></svg>
